!! J.S. Bach "Allemanda" from Partita No. 2, solo violin, BWV 1004.
!! From 'Neue Ausgabe Saemtlicher Werke' Serie VI: Kammermusikwerke,
!! Band 1 ('Werke fuer Violine') Baerenreiter Kassel (Basel) 1958; pp.30-31
!! NOTE: The repeats and the alternative ending at the end of bar 16
!!       and at the end of the movement have been expanded in this encoding.
!! NOTE: A quadruple stop occurs in bars 16 and 32, and a double-stop
!!       occurs in bars 48 and 64.
**kern
*M4/4
16d
=1
8.d
16e
16f
16g
16a
16b-
16c#
{16b-
16a
16g}
8.ee
16g
=2
{16f
16c#}
{16d
16A}
{16B-
16d}
{16f
16g}
16c
16A
16c
16e
{24a
24g
24f}
{24g
24f
24e}
=3
16f
16d
16f
16a
{24b-
24a
24g}
{24a
24g
24f}
16e
16g
16b-
16dd
{24cc
24b-
24a}
{24b-
24a
24g}
=4
16a
16f
16a
16cc
{16ff
16gg
16aa}
16cc
16dd
16a
16b-
16dd
{16gg
16aa
16bb-}
16dd
=5
16ee
16b-
16cc
16g
{16a
16b-
16cc}
16e
16f
16A
16B-
16g
16c
16e
16g
16b-
=6
{16a
16g
16f}
16a
16dd
16f
16e
16d
16c#
16ee
16ff
16gg
16a
16gg
16ff
16ee
=7
{16ff
16ee
16dd}
16e
16d
16cn
16Bn
16A
16G#
16bn
16cc
16dd
16e
16dd
16cc
16b
=8
{16cc
16bn
16a}
16b
{16cc
32ff
32ee
16dd}
16cc
{16b
16a
16g}
16a
{16b
32ee
32dd
16cc}
16b
=9
{16a
16g
16f
32g
32a
16d}
16cc
16bn
16a
{16g#
16f#
16e
16f#
16g#
16a
16b
16cc
=10
16dd
16ee
16ff
16ee
16dd
16cc
16bn
16a}
{16gg#
16aa
16bbn
16aa
16gg#
16ff#
16ee
16dd}
=11
{16cc
32dd
32ee
16ffn}
16aa
{16bn
32cc
32dd
16ee}
16ggn
{16a
32b
32cc
16dd}
16ff
{16g
32a
32b
16cc}
16ee
=12
{16f
32g
32a
16bn}
16dd
{16e
32f#
32g#
16a}
16cc
{16d
16c#
16d}
16fn
16b-
16ccn
16dd
16b-
=13
{16f
16e
16f}
16b-
16dd
16ee
16ff
16dd
{16b-
16a
16b-}
16dd
{16ff
32gg
32aa
16bb-}
16aa
=14
16gg#
{32bbn
32aa
16gg#}
{32ffn
32ee
16dd}
{32ff
32ee
16dd}
{32bn
32a
16g#}
{16b
16ee}
16gg#
16bb
16ee
{16ddd
32ccc
32bb}
=15
{16ccc
32bbn
32aa
16gg#}
16aa
{24cc
24dd
24ee}
24dd
24cc
24bn
8.a
16b
16cc#
16dd
16ee
16gn
=16
{16f
16d
16f
16a
16dd
16ff
16gg#}
16d
4.A 4.e 4.cc# 4.aa
16r
16d
=17
8.d
16e
16f
16g
16a
16b-
16c#
{16b-
16a
16g}
8.ee
16g
=18
{16f
16c#}
{16d
16A}
{16B-
16d}
{16f
16g}
16c
16A
16c
16e
{24a
24g
24f}
{24g
24f
24e}
=19
16f
16d
16f
16a
{24b-
24a
24g}
{24a
24g
24f}
16e
16g
16b-
16dd
{24cc
24b-
24a}
{24b-
24a
24g}
=20
16a
16f
16a
16cc
{16ff
16gg
16aa}
16cc
16dd
16a
16b-
16dd
{16gg
16aa
16bb-}
16dd
=21
16ee
16b-
16cc
16g
{16a
16b-
16cc}
16e
16f
16A
16B-
16g
16c
16e
16g
16b-
=22
{16a
16g
16f}
16a
16dd
16f
16e
16d
16c#
16ee
16ff
16gg
16a
16gg
16ff
16ee
=23
{16ff
16ee
16dd}
16e
16d
16cn
16Bn
16A
16G#
16bn
16cc
16dd
16e
16dd
16cc
16b
=24
{16cc
16bn
16a}
16b
{16cc
32ff
32ee
16dd}
16cc
{16b
16a
16g}
16a
{16b
32ee
32dd
16cc}
16b
=25
{16a
16g
16f
32g
32a
16d}
16cc
16bn
16a
{16g#
16f#
16e
16f#
16g#
16a
16b
16cc
=26
16dd
16ee
16ff
16ee
16dd
16cc
16bn
16a}
{16gg#
16aa
16bbn
16aa
16gg#
16ff#
16ee
16dd}
=27
{16cc
32dd
32ee
16ffn}
16aa
{16bn
32cc
32dd
16ee}
16ggn
{16a
32b
32cc
16dd}
16ff
{16g
32a
32b
16cc}
16ee
=28
{16f
32g
32a
16bn}
16dd
{16e
32f#
32g#
16a}
16cc
{16d
16c#
16d}
16fn
16b-
16ccn
16dd
16b-
=29
{16f
16e
16f}
16b-
16dd
16ee
16ff
16dd
{16b-
16a
16b-}
16dd
{16ff
32gg
32aa
16bb-}
16aa
=30
16gg#
{32bbn
32aa
16gg#}
{32ffn
32ee
16dd}
{32ff
32ee
16dd}
{32bn
32a
16g#}
{16b
16ee}
16gg#
16bb
16ee
{16ddd
32ccc
32bb}
=31
{16ccc
32bbn
32aa
16gg#}
16aa
{24cc
24dd
24ee}
24dd
24cc
24bn
8.a
16b
16cc#
16dd
16ee
16gn
=32
{16f
16d
16f
16a
16dd
16ff
16gg#}
16d
4.A 4.e 4.cc# 4.aa
16r
16ee
=33
8.ee
16ff
16ee
16dd
16cc#
16bn
{16a
32g
32a
16b-}
16a
16g
16f
16e
16f
=34
{16g
16f}
{16e
16d}
16ff
16a
16b-
16d
{16c
16g
16b-}
16ee-
16a
16ccn
16ff
16ee-
=35
{16dd
16a
16b-}
16dd
16e-
16g
16a
16bn
16cc
16dd
16ee-
16cc
{24aa
24gg
24ff#}
{24gg
24ff#
24een}
=36
{16ff#
32cc
32dd
16ee-}
16dd
{16cc
32b-
32a
16dd}
16cc
{16b-
32cc
32dd
16ee}
16gg
{16a
32b-
32cc
16dd}
16ffn
=37
{16g
32a
32b-
16cc}
16ee-
{16f
32g
32a
16b-}
16dd
16e-
{32gg
32ff
16ee}
{32cc
32b-
16a}
{32cc
32b-
16a}
{32f#
32en
=38
16d}
{16f#
16a}
16cc
{24ee-
24dd
24cc}
{24ff#
24een
24dd}
{16bb-
32aa
32gg
16ff#}
16gg
{24b-
24cc
24dd}
{24cc
24b-
24a}
=39
8.g
16a
16b-
16cc
16dd
16fn
16e
16c
16e
16g
{16b-
32ee
32ffn
16gg}
16b-
=40
16a
16f
16a
16cc
16ff
16a
16g
16f
16c
16g
16cc
16dd
16ee
16b-
16a
16g
=41
16f
16d
16f
16a
16dd
16f
16e
16d
16A
16e
16a
16b-
16cc
16g
16f
16e-
=42
16d
16B-
16d
16f
16b-
16a
16g
16f
{16ee
32ff
32gg
16ff}
16ee
16dd
16cc
16b-
16gg
=43
{32a
32g
32f
32e
16f}
16B-
16c
16e
16g
16a
{16b-
16a}
{16g
16f}
16aa
16ee
16ff
16dd
=44
{16bn
16dd
16ff}
16aa
16gg
16ee
16cc#
16gg
{16d
16a
16cc#}
16gg
16ff
16cc#
16dd
16b-
=45
{16g
16b-
16dd}
16ff
16ee-
16ccn
16a
16ee-
{16B-
16f
16a}
16ee-
16dd
16a
16b-
16g
=46
{16e
16g
16b-}
16dd
16cc
16a
16f#
16cc
16b-
16a
16g
16fn
16e-
16d
16e-
16g
=47
{16b-
16a
16b-}
16ee-
{16gg
16ff#
16gg}
16bb-
{16cc#
32a
32bn
16cc#}
16een
16g
{32b-
32a
16g}
{32fn
32e
=48
16f}
{32a
32g
16f}
{32e
32d
16A}
16e
16dd
16cc#
4.d 4.dd
16r
16ee
=49
8.ee
16ff
16ee
16dd
16cc#
16bn
{16a
32g
32a
16b-}
16a
16g
16f
16e
16f
=50
{16g
16f}
{16e
16d}
16ff
16a
16b-
16d
{16c
16g
16b-}
16ee-
16a
16ccn
16ff
16ee-
=51
{16dd
16a
16b-}
16dd
16e-
16g
16a
16bn
16cc
16dd
16ee-
16cc
{24aa
24gg
24ff#}
{24gg
24ff#
24een}
=52
{16ff#
32cc
32dd
16ee-}
16dd
{16cc
32b-
32a
16dd}
16cc
{16b-
32cc
32dd
16ee}
16gg
{16a
32b-
32cc
16dd}
16ffn
=53
{16g
32a
32b-
16cc}
16ee-
{16f
32g
32a
16b-}
16dd
16e-
{32gg
32ff
16ee}
{32cc
32b-
16a}
{32cc
32b-
16a}
{32f#
32en
=54
16d}
{16f#
16a}
16cc
{24ee-
24dd
24cc}
{24ff#
24een
24dd}
{16bb-
32aa
32gg
16ff#}
16gg
{24b-
24cc
24dd}
{24cc
24b-
24a}
=55
8.g
16a
16b-
16cc
16dd
16fn
16e
16c
16e
16g
{16b-
32ee
32ffn
16gg}
16b-
=56
16a
16f
16a
16cc
16ff
16a
16g
16f
16c
16g
16cc
16dd
16ee
16b-
16a
16g
=57
16f
16d
16f
16a
16dd
16f
16e
16d
16A
16e
16a
16b-
16cc
16g
16f
16e-
=58
16d
16B-
16d
16f
16b-
16a
16g
16f
{16ee
32ff
32gg
16ff}
16ee
16dd
16cc
16b-
16gg
=59
{32a
32g
32f
32e
16f}
16B-
16c
16e
16g
16a
{16b-
16a}
{16g
16f}
16aa
16ee
16ff
16dd
=60
{16bn
16dd
16ff}
16aa
16gg
16ee
16cc#
16gg
{16d
16a
16cc#}
16gg
16ff
16cc#
16dd
16b-
=61
{16g
16b-
16dd}
16ff
16ee-
16ccn
16a
16ee-
{16B-
16f
16a}
16ee-
16dd
16a
16b-
16g
=62
{16e
16g
16b-}
16dd
16cc
16a
16f#
16cc
16b-
16a
16g
16fn
16e-
16d
16e-
16g
=63
{16b-
16a
16b-}
16ee-
{16gg
16ff#
16gg}
16bb-
{16cc#
32a
32bn
16cc#}
16een
16g
{32b-
32a
16g}
{32fn
32e
=64
16f}
{32a
32g
16f}
{32e
32d
16A}
16e
16dd
16cc#
4.d 4.dd
16r
==
*-
